www/assets/icons/mobiledata_off.svg

<svg width="24" height="24" viewBox="0 0 24 24" xmlns="http://www.w3.org/2000/svg" fill='currentColor'><path d="M16.71 6.2901H19.71L15.71 2.2901L11.71 6.2901H14.71V10.4601L16.71 12.4601V6.2901Z"/><path d="M3.52001 2.1001L2.10001 3.5101L8.71001 10.1201V16.3001L5.71001 16.3101L9.71001 20.2901L13.71 16.2901L10.71 16.3001V12.1201L20.49 21.9001L21.9 20.4801L3.52001 2.1001Z"/></svg>

<svg xmlns="http://www.w3.org/2000/svg" width="24" height="24" viewBox="0 0 24 24" fill='currentColor'><path d="M16.71 6.29h3l-4-4-4 4h3v4.17l2 2zM3.52 2.1 2.1 3.51l6.61 6.61v6.18l-3 .01 4 3.98 4-4-3 .01v-4.18l9.78 9.78 1.41-1.42z"/></svg>
